icons/react.svg

<svg height="500" viewBox="0 0 563 500" width="563" xmlns="http://www.w3.org/2000/svg"><g fill="none" fill-rule="evenodd" transform="translate(12 12)"><circle cx="269.529" cy="237.628" fill="#00d8ff" fill-rule="nonzero" r="50.167"/><g stroke="#00d8ff" stroke-width="24"><path d="m269.529 135.628c67.356 0 129.928 9.665 177.107 25.907 56.844 19.569 91.794 49.233 91.794 76.093 0 27.991-37.041 59.503-98.083 79.728-46.151 15.291-106.879 23.272-170.818 23.272-65.554 0-127.63-7.492-174.29-23.441-59.046-20.182-94.611-52.103-94.611-79.559 0-26.642 33.37-56.076 89.415-75.616 47.355-16.509 111.472-26.384 179.486-26.384z"/><path d="m180.736 186.922c33.649-58.348 73.281-107.724 110.92-140.48 45.35-39.466 88.507-54.923 111.775-41.505 24.248 13.983 33.042 61.814 20.067 124.796-9.81 47.618-33.234 104.212-65.176 159.601-32.749 56.788-70.25 106.819-107.377 139.272-46.981 41.068-92.4 55.929-116.185 42.213-23.079-13.31-31.906-56.921-20.834-115.233 9.355-49.27 32.832-109.745 66.81-168.664z"/><path d="m180.821 289.482c-33.746-58.292-56.731-117.287-66.312-166.255-11.544-58.999-3.382-104.109 19.864-117.566 24.224-14.024 70.055 2.244 118.14 44.94 36.356 32.28 73.688 80.837 105.723 136.173 32.844 56.733 57.461 114.209 67.036 162.582 12.117 61.213 2.309 107.984-21.453 121.74-23.057 13.348-65.249-.784-110.239-39.499-38.013-32.711-78.682-83.253-112.759-142.115z"/></g></g></svg>

<?xml version="1.0" encoding="UTF-8"?>
<svg width="563px" height="500px" viewBox="0 0 563 500" version="1.1" xmlns="http://www.w3.org/2000/svg" xmlns:xlink="http://www.w3.org/1999/xlink">
    <!-- Generator: Sketch 56.2 (81672) - https://sketch.com -->
    <title>react</title>
    <desc>Created with Sketch.</desc>
    <g id="Page-1" stroke="none" stroke-width="1" fill="none" fill-rule="evenodd">
        <g id="react" transform="translate(12.000000, 12.000000)">
            <circle id="Oval" fill="#00D8FF" fill-rule="nonzero" cx="269.529" cy="237.628" r="50.167"></circle>
            <path d="M269.529,135.628 C336.885,135.628 399.457,145.293 446.636,161.535 C503.48,181.104 538.43,210.768 538.43,237.628 C538.43,265.619 501.389,297.131 440.347,317.356 C394.196,332.647 333.468,340.628 269.529,340.628 C203.975,340.628 141.899,333.136 95.239,317.187 C36.193,297.005 0.628,265.084 0.628,237.628 C0.628,210.986 33.998,181.552 90.043,162.012 C137.398,145.503 201.515,135.628 269.529,135.628 Z" id="Path" stroke="#00D8FF" stroke-width="24"></path>
            <path d="M180.736,186.922 C214.385,128.574 254.017,79.198 291.656,46.442 C337.006,6.976 380.163,-8.481 403.431,4.937 C427.679,18.92 436.473,66.751 423.498,129.733 C413.688,177.351 390.264,233.945 358.322,289.334 C325.573,346.122 288.072,396.153 250.945,428.606 C203.964,469.674 158.545,484.535 134.76,470.819 C111.681,457.509 102.854,413.898 113.926,355.586 C123.281,306.316 146.758,245.841 180.736,186.922 Z" id="Path" stroke="#00D8FF" stroke-width="24"></path>
            <path d="M180.821,289.482 C147.075,231.19 124.09,172.195 114.509,123.227 C102.965,64.228 111.127,19.118 134.373,5.661 C158.597,-8.363 204.428,7.905 252.513,50.601 C288.869,82.881 326.201,131.438 358.236,186.774 C391.08,243.507 415.697,300.983 425.272,349.356 C437.389,410.569 427.581,457.34 403.819,471.096 C380.762,484.444 338.57,470.312 293.58,431.597 C255.567,398.886 214.898,348.344 180.821,289.482 Z" id="Path" stroke="#00D8FF" stroke-width="24"></path>
        </g>
    </g>
</svg>
